X:1
T:Title
%%score { ( 1 3 ) | ( 2 4 ) }
L:1/8
M:6/8
K:Db
V:1 treble nm="Grand Piano"
V:3 treble 
V:2 bass 
V:4 bass 
V:1
 z3 z2[Q:1/4=92] [FA] | [Fd]2 [FA] dc[GB] | [FA]3 F2 D | FGA [A,CF]2[K:bass] [G,CE] | %4
 [F,D]3- [F,D]2[K:treble] [A,DF] | [A,CG]2 [A,CE] .[A,CG]2 [Gd] | [Gc]3 [GB]2 [CA] | =GFE B2 c | %8
 [CA]3- [CA]2 [GA] | [Fd]2 [FA] dc[GB] |[M:5/8] [FA]3 F2 |[M:1/8] D |[M:3/4] E2 E F2 F | G4- GB | %14
 A2 B c2 d | e3 B2 d | c2 A e2 [Gc] |[M:5/8] [Fd]-[Fd]- [Fd]3 |[M:1/8] [Fd] | %19
[M:3/4] [Fd]2 [FA]_c z [DFA] | B3 d2 d | [=Ge]2 [GB]d z [EGB] | [EGc]4- [EGc][CGA] | %23
 [Fd]2 [FA][EF] EF | G3 B2 B | A2 d e2 [Gc] |[M:5/8] [Fd]-[Fd]- [Fd]3 |] %27
V:2
 z3 z2 [D,D] | [D,A,]2 [D,D] [D,D]2 [D,D] | [D,D]3 [D,A,D]2 [D,F,] | [D,A,D]2 [D,F,D] A,,2 A,, | %4
 D,3- D,2 D, | E,2 A,, z E[A,,A,] | [A,,A,]3 [A,,A,]2 [A,,A,] | B,A,[E,=G,D] [E,G,D]2 [E,G,D] | %8
 [A,,E,A,]3- [A,,E,A,]2 [A,C] | [D,D]2 [D,D] [D,D]2 [D,D] |[M:5/8] [D,D]3 [D,A,D]2 | %11
[M:1/8] [F,A,] |[M:3/4] [G,B,]2 [G,B,] [F,=A,E]2 [F,A,E] | [E,B,E]4- [E,B,E][K:treble][=G,D_F] | %14
 [A,DF]2 [A,DF] [A,DF]2 [A,DF] | [A,CG]3 [A,EG]2 [A,EG] | [A,EG]2 [A,CG][K:bass] [A,,CG]2 [A,,A,] | %17
[M:5/8] [D,A,]-[D,A,]- [D,A,]3 |[M:1/8] [D,_C] |[M:3/4] [D,_C]2 .[D,D]2[K:treble] B[K:bass]D, | %20
 [G,DG]3 [G,B,G]2 [G,B,G] | [E,B,]2 .[E,E]2[K:treble] c[K:bass]E, | A,4- A,A, | %23
 [D,D]2 [D,D] [F,=A,]2 [F,A,E] | [G,B,E]3[K:treble] [=G,D_F]2 [G,DF] | %25
 [A,DF]2 [A,DF][K:bass] [A,,CG]2 [A,,A,] |[M:5/8] [D,A,]-[D,A,]- [D,A,]3 |] %27
V:3
 x6 | z3 .F3 | x6 | x5[K:bass] x | x5[K:treble] x | x6 | x6 | x6 | x6 | z3 .F3 |[M:5/8] x5 | %11
[M:1/8] x |[M:3/4] x6 | x6 | x6 | x6 | x6 |[M:5/8] x5 |[M:1/8] x |[M:3/4] z2 z .F3 | x6 | %21
 z2 z .=G3 | x6 | x6 | x6 | x6 |[M:5/8] x5 |] %27
V:4
 x6 | x6 | x6 | x6 | x6 | z3 .A,,3 | x6 | .[E,D]3 z3 | x6 | x6 |[M:5/8] x5 |[M:1/8] x |[M:3/4] x6 | %13
 x5[K:treble] x | x6 | x6 | x3[K:bass] x3 |[M:5/8] x5 |[M:1/8] x | %19
[M:3/4] z2 z .[D,D]3[K:treble][K:bass] | x6 | z2 z .[E,E]3[K:treble][K:bass] | x6 | x6 | %24
 x3[K:treble] x3 | x3[K:bass] x3 |[M:5/8] x5 |] %27

